X: 1
T:The Ice in the Bucket (1st Setting)
M:C
L:1/8
Q:80
C:Composed by T. Tully
S:Reel
K:HP
|: a2|
GA{g}A{d}A{g}BA{g}A{d}A|
{g}Bd{c}dc{Gdc}d2{g}ef|  !
{a}gf{g}ed{g}Bd{g}d{c}d|
{g}Be{A}ed{gef}e2f2GA{g}A{d}A{g}BA{g}A{d}A|
{g}Bd{c}dc{Gdc}d2{g}ef|  !
{a}gf{g}ed{g}Bd{g}d{c}d|
{g}Ad{c}dc{Gdc}d2:| |:
{g}fg|  !
ag{a}faAd{g}d{c}d|
{g}Be{A}ed{gef}e2{g}fg|
ag{a}faBd{g}d{c}d|  !
{g}Ad{c}dc{Gdc}d2{g}fgag{a}faAd{g}d{c}d|
{g}Be{A}ed{gef}e2{g}f2|
{g}GA{g}A{d}A{g}BA{g}A{d}A|  !
{g}Bd{c}dc{Gdc}d2:|
